X:110
T: Irish Frolic
S: B.Breathnach:"Ceol Rince na hEireann" IV/37 (gan ainm)
Z: B.Black
L: 1/8
M: 9/8
R: slipjig
K: Amix
A2a e2c e2c|A2a e2c dBG|A2a e2c e2c|BGB g2e dBG :|
c2A AB/c/A c2A|c2A AB/c/A dBG|c2A AB/c/A c2A|BGB g2e dBG :|
